X:1
T:Tramp on the Street
M:3/4
L:1/2
K:Eb
 G/2 B/2G/4-F/4| E3/2| E3/2-| E3/2| B/2 c/2 B/2| A3/2-| A3/2| A/2- G/2 A/2|\
 F3/2| D/8- B,3/8- B,-| B,- B,/4B,/4| B/2 c| B3/2-| G3/2| G/2 B/2 G/2|\
 E3/2-| E B/4B/4| B/2 c3/4 B/4|B/4-A/4 A-| A c/4c/4| c/2 e3/4 e/4|\
 c/2- B-| E G3/8 G/8| F G3/8 G/8|F/4-E/4 E-| E3/2|
